X: 29006
T: Navvie On The Line, The
R: hornpipe
M: 4/4
K: Gmajor
|:B>c|d>gf>e (3ded (3cBA|G>BD>G (3BcB A>G|F>AD>F (3ABA G>F|G>DE>F G>AB>c|
d>gf>e (3ded (3cBA|G>BD>G (3BcB A>G|F>GA>B c>de>f|g2 G2 G2:|
|:A>G|F>AD>F (3ABA G>F|G>BD>G (3BcB A>G|F>AD>F (3ABA G>F|G>DE>F G>AB>c|
d>gf>e (3ded (3cBA|G>BD>G (3BcB A>G|F>GA>B c>de>f|g2 G2 G2:|

